!!!!SEGMENT: Wil3036-Baises_moy_tant_tant_II.krn
!!!id: Wil3036
!!!AGN: Chanson
!!!SCT: Bernstein (1984)
!!!voices: 3
!!!COM: Adrian Willaert
!!!OTL: Baisés moy tant tant II
**kern	**kern	**kern
*part3	*part2	*part1
*staff3	*staff2	*staff1
*I"Bassus	*I"Tenor	*I"Superius
*I'B	*I'T	*I'S
*clefF4	*clefGv2	*clefGv2
*k[]	*k[]	*k[]
*C:	*C:	*C:
*M2/1	*M2/1	*M2/1
*met(C|)	*met(C|)	*met(C|)
=1	=1	=1
2.c	0r	2r
.	.	2.e
4c	.	.
2A	.	.
.	.	4f
2B	.	2g
=2	=2	=2
2c	0r	2g
2.G	.	2g
.	.	2.e
4G	.	.
2A	.	.
.	.	4f
=3	=3	=3
2B	0r	2g
1c	.	2g
.	.	1g
2G	.	.
=4	=4	=4
2A	0r	2r
2B	.	2g
2c	.	2.a
[2d	.	.
.	.	4g
=5	=5	=5
2d]	0r	2f
1c	.	2e
.	.	1d
2B	.	.
=6	=6	=6
1c	1r	2c
.	.	1A
2.c	2r	.
.	[2e	2A
4c	.	.
=7	=7	=7
2A	4e]	2c
.	4f	.
2G	2g	2d
2c	2g	1e
[2c	2g	.
=8	=8	=8
4c]	2.e	2.c
4c	.	.
2A	.	.
.	4f	4c
2G	2g	2d
2c	2g	2e
=9	=9	=9
2r	1g	2c
2C	.	2e
2D	2r	2f
2E	2g	2e
=10	=10	=10
2.F	2.a	2d
.	.	4c
4G	4g	4B
4A	2f	1c
4B	.	.
[2c	2e	.
=11	=11	=11
2c]	1d	1G
2B	.	.
1c	1c	2r
.	.	[2e
=12	=12	=12
1r	2.G	4e]
.	.	4f
.	.	2g
.	4A	.
2.E	2B	2g
.	2c	2g
4F	.	.
=13	=13	=13
2G	2B	2.e
2A	2c	.
.	.	4f
2G	2d	2g
[2C	[2e	2g
=14	=14	=14
4C]	2e]	1g
4D	.	.
2E	2.c	.
2F	.	2r
.	4d	.
2C	2e	2g
=15	=15	=15
2r	2f	2a
2c	2e	2g
2d	2r	2f
[2c	2g	2e
=16	=16	=16
2c]	2a	1d
2B	2g	.
2A	2f	1c
[2c	2e	.
=17	=17	=17
2c]	1d	2r
2B	.	2d
2c	1g	2.e
2G	.	.
.	.	4d
=18	=18	=18
2A	2r	2c
2G	2g	2B
2.F	2.a	2c
.	.	[2A
4E	4g	.
=19	=19	=19
2D	2f	4A]
.	.	4B
2C	2e	1c
1G	1d	.
.	.	2B
=20	=20	=20
0C	2c	1c
.	1e	.
.	.	2r
.	4d	2e
.	4c	.
=21	=21	=21
2r	1d	2f
2G	.	2g
2A	1r	2c
2B	.	2g
=22	=22	=22
1c	2r	2a
.	2c	2g
2r	2d	2f
2c	2e	[2a
=23	=23	=23
2.d	1f	4a]
.	.	4g
.	.	4f
4c	.	4e
2B	1r	2d
2G	.	[2g
=24	=24	=24
2.A	1c	4g]
.	.	8fL
.	.	8eJ
.	.	4f
4G	.	2e
4F	2d	.
4G	.	2d
2E	2e	.
.	.	4c#i
=25	=25	=25
2D	1f	2.d
2.d	.	.
.	.	4c
.	2r	4B
4c	.	4A
2A	2f	2c
=26	=26	=26
2B	2.g	2d
1c	.	2.e
.	4f	.
.	2e	.
.	.	4d
2F	2f	[2c
=27	=27	=27
2.G	1d	4c]
.	.	8BL
.	.	8AJ
.	.	4B
4F	.	2A
2E	1c	.
.	.	4G
2F	.	[2c
=28	=28	=28
1D	1r	2c]
.	.	2B
1C	2r	[1c
.	[2e	.
=29	=29	=29
2r	2e]	1c]
2A	2f	.
2B-X	2f	1r
2B-i	2g	.
=30	=30	=30
2c	2g	1e
2c	1a	.
2d	.	2f
2d	4g	2f
.	4f	.
=31	=31	=31
1c	2e	2g
.	2e	2g
2r	2.f	2a
2F	.	2a
.	4e	.
=32	=32	=32
2.G	2d	1g
.	2.e	.
4F	.	.
2E	.	1r
.	4d	.
2F	[2c	.
=33	=33	=33
1D	4c]	2r
.	8BL	.
.	8AJ	.
.	4B	2f
.	4A	.
1C	2.e	2.g
.	4f	4f
=34	=34	=34
1r	2g	2e
.	1a	2f
2r	.	1d
2G	2g	.
=35	=35	=35
2.A	2f	1c
.	2.e	.
4G	.	.
2F	.	2r
.	4d	.
2G	[2d	2g
=36	=36	=36
1E	2d]	2g
.	2c#i	2g
2D	1d	2f
2d	.	2f
=37	=37	=37
2c	0r	2g
2c	.	2a
2B	.	2.g
2c	.	.
.	.	8fL
.	.	8eJ
=38	=38	=38
2d	1r	2f
2d	.	2f
2.c	2r	1e
.	2g	.
8BL	.	.
8AJ	.	.
=39	=39	=39
2B	2g	2r
2c	2g	2e
2A	2f	2c
[2B	2f	[2d
=40	=40	=40
4B]	2g	4d]
4A	.	4e
2F	2a	2.f
1c	2.g	.
.	.	4e
.	.	[2e
.	8fL	.
.	8eJ	.
=41	=41	=41
2A	2f	2e]
2B	2f	2d
2c	1e	2e
4c	.	2r
4c	.	.
=42	=42	=42
2A	2r	4e
.	.	4f
2B	4d	2g
.	4d	.
2c	2e	2g
4G	2d	2g
4G	.	.
=43	=43	=43
2A	2c	4e
.	.	4f
2B	4d	2g
.	4d	.
2c	2e	2g
2G	2d	2g
=44	=44	=44
2A	2c	2r
2B	2r	2g
2c	1r	2.a
[2d	.	.
.	.	4g
=45	=45	=45
2d]	0r	2f
1c	.	2e
.	.	1d
2B	.	.
=46	=46	=46
2c	2r	1c
4c	4e	.
4A	4f	.
2B	2g	2r
2c	2g	4e
.	.	4c
=47	=47	=47
2G	1g	2d
2.c	.	2e
.	4e	2c
4A	4f	.
2B	2g	4d
.	.	4d
=48	=48	=48
2c	2g	2e
2G	2g	2d
2A	2r	2c
2G	2g	2r
=49	=49	=49
2F	2.a	0r
2.A	.	.
.	4g	.
.	2f	.
4B	.	.
[2c	2e	.
=50	=50	=50
2c]	1d	2r
2B	.	2d
2c	1c	2.e
2A	.	.
.	.	4d
=51	=51	=51
2A	2r	2c
2G	2g	2B
2.F	2.a	2c
.	.	2A
4E	4g	.
=52	=52	=52
4D	2f	2B
4C	.	.
1c	2e	2c
.	2d	2G
2B	[2g	2d
=53	=53	=53
2.c	4g]	2e
.	4f	.
.	4e	2.c
4B	4d	.
2A	4e	.
.	4f	4A
2G	4g	4B
.	4e	4c
=54	=54	=54
2F	4f	4d
.	4e	4c
2A	4d	1c
.	4c	.
1G	1d	.
.	.	2B
=55	=55	=55
1C	1c	1c
2r	2r	1r
4c	4e	.
4A	4f	.
=56	=56	=56
2B	2g	2r
2c	2g	4e
.	.	4c
2G	1g	2d
[2c	.	2e
=57	=57	=57
4c]	4e	2c
4A	4f	.
2B	2g	4d
.	.	4d
2c	2g	2e
2G	2g	2d
=58	=58	=58
2A	2r	2c
2G	2g	2r
2F	2.a	1r
[2A	.	.
.	4g	.
=59	=59	=59
4A]	2f	1r
4B	.	.
1c	2e	.
.	1d	2r
2B	.	2d
=60	=60	=60
2c	1c	2.e
2A	.	.
.	.	4d
2A	2r	2c
2G	2g	2B
=61	=61	=61
2.F	2.a	2c
.	.	2A
4E	4g	.
4D	2f	2B
4C	.	.
[2c	2e	2c
=62	=62	=62
2c]	2d	2G
2B	2.g	2d
2.c	.	2e
.	4f	.
.	4e	[2c
4B	4d	.
=63	=63	=63
2A	4e	4c]
.	4f	4A
2G	4g	4B
.	4e	4c
2F	4f	4d
.	4e	4c
2A	4d	[2c
.	4c	.
=64	=64	=64
1G	1d	2c]
.	.	2B
[1Cl	[1cl	[1cl
=65	=65	=65
00C]	00c]	00c]
==	==	==
*-	*-	*-
!!!system-decoration: [*]
!!!RDF**kern: i = editorial accidental
!!!RDF**kern: l = terminal long
!!!ENC: Benjamin Ory
!!!END: 2023/12/5
!!!EED: Benjamin Ory
!!!EEV: 2023/12/05
!!!YEC: Copyright 2023 Benjamin Ory, All Rights Reserved
!!!ONB: Translated from MusicXML on 2023/12/05
